assets/Sport utility vehicle/Flat/sport_utility_vehicle_flat.svg

<svg width="32" height="32" viewBox="0 0 32 32" fill="none" xmlns="http://www.w3.org/2000/svg">
<path d="M14 7C13.4477 7 13 7.44772 13 8V9H14V8H25V9H26V8C26 7.44772 25.5523 7 25 7H14Z" fill="#212121"/>
<path d="M14 7H15V8H14V7ZM16 7H17V8H16V7ZM19 7H18V8H19V7ZM20 7H21V8H20V7ZM25 7H24V8H25V7ZM22 7H23V8H22V7Z" fill="#D3D3D3"/>
<path d="M29.49 23H27V15H29.49C29.77 15 30 15.23 30 15.51V22.49C29.99 22.78 29.77 23 29.49 23Z" fill="#636363"/>
<path d="M27.05 9H11.59C11.23 9 10.9 9.21 10.74 9.53L10.5053 10L9.5 13.5L7.01001 17H5.01001C3.51001 17 3 17.5 3 19V26H28V17L27 13.5L28 10V9.95C28 9.43 27.58 9 27.05 9Z" fill="#5092FF"/>
<path d="M28.13 24H2.87C2.39 24 2 24.39 2 24.87V26.13C2 26.61 2.39 27 2.87 27H28.13C28.61 27 29 26.61 29 26.13V24.87C28.99 24.39 28.61 24 28.13 24Z" fill="#D3D3D3"/>
<path d="M5 20C5 19.45 4.55 19 4 19H3V21.34V22H4C4.55 22 5 21.55 5 21V20Z" fill="#FFF478"/>
<path d="M11.99 26.5C11.99 28.433 10.423 30 8.48999 30C6.55699 30 4.98999 28.433 4.98999 26.5C4.98999 24.567 6.55699 23 8.48999 23C10.423 23 11.99 24.567 11.99 26.5ZM25.99 26.5C25.99 28.433 24.423 30 22.49 30C20.557 30 18.99 28.433 18.99 26.5C18.99 24.567 20.557 23 22.49 23C24.423 23 25.99 24.567 25.99 26.5Z" fill="#321B41"/>
<path d="M10 26.5C10 27.3284 9.32843 28 8.5 28C7.67157 28 7 27.3284 7 26.5C7 25.6716 7.67157 25 8.5 25C9.32843 25 10 25.6716 10 26.5ZM24 26.5C24 27.3284 23.3284 28 22.5 28C21.6716 28 21 27.3284 21 26.5C21 25.6716 21.6716 25 22.5 25C23.3284 25 24 25.6716 24 26.5Z" fill="#F4F4F4"/>
<path d="M22.0336 17H17.9664C17.4329 17 17 16.5699 17 16.0399V10.9592C17 10.4291 17.4329 9.99907 17.9664 9.99907H22.0336C22.5671 9.99907 23 10.4291 23 10.9592V16.0399C23 16.5699 22.5671 17 22.0336 17ZM15 16.04V10.96C15 10.43 14.5651 10 14.0291 10H10.5L7 17H14.0291C14.5651 17 15 16.57 15 16.04ZM25.96 10H28V17H25.96C25.43 17 25 16.57 25 16.04V10.96C25 10.43 25.43 10 25.96 10Z" fill="#26C9FC"/>
<path d="M28 19H27.5004C26.6511 19 25.9617 19.71 26.0017 20.57C26.0416 21.38 26.741 22 27.5504 22H28V19Z" fill="#F8312F"/>
<path d="M11.13 18H11.52C11.79 18 12 17.78 12 17.52V15.48C12 15.21 11.78 15 11.52 15H11.13C10.51 15 10 15.51 10 16.13V16.87C10 17.5 10.51 18 11.13 18ZM15.5 19H14.5C14.22 19 14 18.78 14 18.5C14 18.22 14.22 18 14.5 18H15.5C15.78 18 16 18.22 16 18.5C16 18.78 15.78 19 15.5 19ZM19.5 19H20.5C20.78 19 21 18.78 21 18.5C21 18.22 20.78 18 20.5 18H19.5C19.22 18 19 18.22 19 18.5C19 18.78 19.22 19 19.5 19Z" fill="#D3D3D3"/>
</svg>

<svg xmlns="http://www.w3.org/2000/svg" width="32" height="32" fill="none"><path fill="#212121" d="M14 7a1 1 0 0 0-1 1v1h1V8h11v1h1V8a1 1 0 0 0-1-1H14Z"/><path fill="#D3D3D3" d="M14 7h1v1h-1V7Zm2 0h1v1h-1V7Zm3 0h-1v1h1V7Zm1 0h1v1h-1V7Zm5 0h-1v1h1V7Zm-3 0h1v1h-1V7Z"/><path fill="#636363" d="M29.49 23H27v-8h2.49c.28 0 .51.23.51.51v6.98c-.01.29-.23.51-.51.51Z"/><path fill="#5092FF" d="M27.05 9H11.59c-.36 0-.69.21-.85.53l-.235.47L9.5 13.5 7.01 17h-2C3.51 17 3 17.5 3 19v7h25v-9l-1-3.5 1-3.5v-.05a.95.95 0 0 0-.95-.95Z"/><path fill="#D3D3D3" d="M28.13 24H2.87a.87.87 0 0 0-.87.87v1.26c0 .48.39.87.87.87h25.26c.48 0 .87-.39.87-.87v-1.26a.877.877 0 0 0-.87-.87Z"/><path fill="#FFF478" d="M5 20c0-.55-.45-1-1-1H3v3h1c.55 0 1-.45 1-1v-1Z"/><path fill="#321B41" d="M11.99 26.5a3.5 3.5 0 1 1-7 0 3.5 3.5 0 0 1 7 0Zm14 0a3.5 3.5 0 1 1-7 0 3.5 3.5 0 0 1 7 0Z"/><path fill="#F4F4F4" d="M10 26.5a1.5 1.5 0 1 1-3 0 1.5 1.5 0 0 1 3 0Zm14 0a1.5 1.5 0 1 1-3 0 1.5 1.5 0 0 1 3 0Z"/><path fill="#26C9FC" d="M22.034 17h-4.068a.964.964 0 0 1-.966-.96v-5.08c0-.53.433-.96.966-.96h4.068c.533 0 .966.43.966.96v5.08c0 .53-.433.96-.966.96ZM15 16.04v-5.08c0-.53-.435-.96-.97-.96H10.5L7 17h7.03c.535 0 .97-.43.97-.96ZM25.96 10H28v7h-2.04a.96.96 0 0 1-.96-.96v-5.08c0-.53.43-.96.96-.96Z"/><path fill="#F8312F" d="M28 19h-.5c-.849 0-1.538.71-1.498 1.57.04.81.739 1.43 1.548 1.43H28v-3Z"/><path fill="#D3D3D3" d="M11.13 18h.39c.27 0 .48-.22.48-.48v-2.04a.48.48 0 0 0-.48-.48h-.39c-.62 0-1.13.51-1.13 1.13v.74c0 .63.51 1.13 1.13 1.13Zm4.37 1h-1c-.28 0-.5-.22-.5-.5s.22-.5.5-.5h1c.28 0 .5.22.5.5s-.22.5-.5.5Zm4 0h1c.28 0 .5-.22.5-.5s-.22-.5-.5-.5h-1c-.28 0-.5.22-.5.5s.22.5.5.5Z"/></svg>
